src/assets/filled/UserRemove.svg

<svg width="24" height="24" viewBox="0 0 24 24"  xmlns="http://www.w3.org/2000/svg">
<path d="M11.9999 14C6.98991 14 2.90991 17.36 2.90991 21.5C2.90991 21.78 3.12991 22 3.40991 22H20.5899C20.8699 22 21.0899 21.78 21.0899 21.5C21.0899 17.36 17.0099 14 11.9999 14Z" />
<path d="M16.8501 5.80008C16.7301 5.31008 16.5301 4.83008 16.2501 4.39008C16.0601 4.07008 15.8101 3.75008 15.5401 3.47008C14.6401 2.57008 13.4701 2.08008 12.2701 2.02008C10.9101 1.93008 9.52009 2.43008 8.47009 3.47008C7.48009 4.45008 6.98009 5.76008 7.00009 7.08008C7.01009 8.33008 7.51009 9.58008 8.46009 10.5401C9.12009 11.2001 9.93009 11.6401 10.8001 11.8401C11.2701 11.9601 11.7701 12.0201 12.2701 11.9801C13.4601 11.9301 14.6201 11.4601 15.5301 10.5401C16.8201 9.25008 17.2601 7.44008 16.8501 5.80008ZM14.0001 9.00008C13.6401 9.36008 13.0401 9.36008 12.6801 9.00008L11.9901 8.31008L11.3301 8.97008C10.9701 9.33008 10.3701 9.33008 10.0101 8.97008C9.64009 8.60008 9.64009 8.01008 10.0001 7.65008L10.6601 6.99008L10.0201 6.37008C9.66009 6.00008 9.66009 5.41008 10.0201 5.03008C10.3901 4.67008 10.9801 4.67008 11.3601 5.03008L11.9801 5.67008L12.6501 5.00008C13.0101 4.64008 13.6001 4.64008 13.9701 5.00008C14.3301 5.36008 14.3301 5.96008 13.9701 6.32008L13.3101 6.98008L14.0001 7.68008C14.3601 8.04008 14.3601 8.64008 14.0001 9.00008Z" />
</svg>

<?xml version="1.0" encoding="UTF-8"?>
<svg width="24" height="24" viewBox="0 0 24 24" xmlns="http://www.w3.org/2000/svg">
 <path d="m12 14c-5.01 0-9.09 3.36-9.09 7.5 0 0.28 0.22 0.5 0.5 0.5h17.18c0.28 0 0.5-0.22 0.5-0.5 0-4.14-4.08-7.5-9.09-7.5z"/>
 <path d="m16.85 5.8001c-0.12-0.49-0.32-0.97-0.6-1.41-0.19-0.32-0.44-0.64-0.71-0.92-0.9-0.9-2.07-1.39-3.27-1.45-1.36-0.09-2.75 0.41-3.8 1.45-0.99 0.98-1.49 2.29-1.47 3.61 0.01 1.25 0.51 2.5 1.46 3.46 0.66 0.66 1.47 1.1 2.34 1.3 0.47 0.12 0.97 0.18 1.47 0.14 1.19-0.05 2.35-0.52 3.26-1.44 1.29-1.29 1.73-3.1 1.32-4.74zm-2.85 3.2c-0.36 0.36-0.96 0.36-1.32 0l-0.69-0.69-0.66 0.66c-0.36 0.36-0.96 0.36-1.32 0-0.37001-0.37-0.37001-0.96-0.01-1.32l0.66-0.66-0.64-0.62c-0.36001-0.37-0.36001-0.96 0-1.34 0.37-0.36 0.96-0.36 1.34 0l0.62 0.64 0.67-0.67c0.36-0.36 0.95-0.36 1.32 0 0.36 0.36 0.36 0.96 0 1.32l-0.66 0.66 0.69 0.7c0.36 0.36 0.36 0.96 0 1.32z"/>
</svg>
